X:1
T:Title
%%score { ( 1 3 ) | 2 }
L:1/8
Q:1/4=100
M:2/4
K:G
V:1 treble nm="Grand Piano"
V:3 treble 
V:2 bass 
V:1
 [GB]>[GB] [DB]>[DB] | [B,G]2 [B,D]2 | E>E G>G | [B,D]4 | [DB]>[DB] [GB]>[GB] | [Bd]2 [Gd]2 | %6
w: J.~H.~Weber * * *||||||
 [FA]>[FA] [FA]>[GB] | [FA]4 | [DB]>[DB] [DB]>[DB] | [B,G]2 .[B,D]2 | E>E G>G | [B,D]4 | %12
w: ||||||
 [B,G]>[B,G] [B,G]>[CA] | z2 B2 | [FA]>[FA] [GB]>[FA] | G4 | [DB]2 .[DB]2 | [B,G]2 .[B,G]2 | %18
w: ||||||
 E>E G>G | [B,D]4 | [GB]2 .[GB]2 | [Fd]2 .[Fd]2 | [FA]>[FA] [FA]>[GB] | [FA]4 | %24
w: ||||||
 [DB]>[DB] [DB]>[DB] | [B,G]2 .[B,D]2 | E>E G>G | [B,D]4 | [B,G]>[B,G] [B,G]>[CA] | z2 B2 | %30
w: ||||||
 [FA]>[FA] [GB]>[FA] |[M:6/4] .G6 z6 |] %32
w: ||
V:2
 [G,,D,]>[G,,D,] [G,,G,]>[G,,G,] | [G,,D,]2 [G,,G,]2 | [C,G,C]>[C,G,C] [C,E,C]>[C,E,C] | [G,,G,]4 | %4
 [G,,G,]>[G,,G,] [G,,D,]>[G,,G,] | [G,,G,]2 [G,,B,]2 | [D,A,]>[D,A,] [D,A,]>[D,F,] | [D,A,]4 | %8
 [G,,G,]>[G,,G,] [G,,G,]>[G,,G,] | [G,,D,]2 .[G,,G,]2 | [C,G,C]>[C,G,C] [C,E,C]>[C,E,C] | %11
 [G,,G,]4 | [G,,G,]>[G,,G,] [G,,G,]>[G,,G,] | [G,,G,]2 .[G,,G,]2 | [D,D]>[D,D] [D,D]>[D,C] | %15
 [G,B,]4 | [G,,G,]2 .[G,,G,]2 | [G,,D,]2 .[G,,G,]2 | [C,G,C]>[C,G,C] [C,E,C]>[C,E,C] | [G,,G,]4 | %20
 [G,D]2 .[G,D]2 | [D,A,]2 .[D,A,]2 | [D,A,]>[D,A,] [D,A,]>[D,G,] | [D,A,]4 | %24
 [G,,G,]>[G,,G,] [G,,G,]>[G,,G,] | [G,,D,]2 .[G,,G,]2 | [C,G,C]>[C,G,C] [C,E,C]>[C,E,C] | %27
 [G,,G,]4 | [G,,G,]>[G,,G,] [G,,G,]>[G,,G,] | [G,,G,]2 .[G,,G,]2 | [D,D]>[D,D] [D,D]>[D,C] | %31
[M:6/4] .[G,B,]6 z6 |] %32
V:3
 x4 | x4 | x4 | x4 | x4 | x4 | x4 | x4 | x4 | x4 | x4 | x4 | x4 | [DB]2 D[B,G] | x4 | x4 | x4 | %17
 x4 | x4 | x4 | x4 | x4 | x4 | x4 | x4 | x4 | x4 | x4 | x4 | [DB]2 D[B,G] | x4 |[M:6/4] x12 |] %32

